packages/ui-icons/svg/Line/outdent.svg

<svg viewBox="0 0 1920 1920" version="1.1" xmlns="http://www.w3.org/2000/svg">
    <path d="M1919.88508,1468.30298 L1919.88508,1583.22143 L81.3048032,1583.22143 L81.3048032,1468.30298 L1919.88508,1468.30298 Z M1919.88508,1123.54763 L1919.88508,1238.46608 L81.3048032,1238.46608 L81.3048032,1123.54763 L1919.88508,1123.54763 Z M1920,778.792279 L1920,893.710729 L885.733952,893.710729 L885.733952,778.792279 L1920,778.792279 Z M270.518031,336 L351.765375,417.132426 L220.068831,548.943887 L713.413736,548.943887 L713.413736,663.862337 L220.068831,663.862337 L351.765375,795.673799 L270.518031,876.921143 L1.13686838e-13,606.518031 L270.518031,336 Z M1920,434.03693 L1920,548.955379 L885.733952,548.955379 L885.733952,434.03693 L1920,434.03693 Z" stroke="none" stroke-width="1" fill-rule="evenodd"/>
</svg>

<svg viewBox="0 0 1920 1920" xmlns="http://www.w3.org/2000/svg">
    <path d="M1919.885 1468.303v114.918H81.305v-114.918h1838.58Zm0-344.755v114.918H81.305v-114.918h1838.58Zm.115-344.756v114.919H885.734V778.792H1920ZM270.518 336l81.247 81.132L220.07 548.944h493.345v114.918H220.069l131.696 131.812-81.247 81.247L0 606.518 270.518 336ZM1920 434.037v114.918H885.734V434.037H1920Z" fill-rule="evenodd"/>
</svg>
